X:1
T:Title
%%score { ( 1 4 ) | ( 2 3 ) }
L:1/8
M:12/8
K:F
V:1 treble nm="Grand Piano"
V:4 treble 
V:2 bass 
V:3 bass 
V:1
 z6 z3[Q:1/4=104] F2 G | A2 A A2 B A3 G2 A |[M:9/8] [DFB]2 [DFB] [DFB]2 [Fd] [Fc]3 | %3
[M:3/8] [CAc][CGB][CFA] |[M:6/4] .[CEG]6 [GB]3 [GB][FA][EG] | A6- A3 F2 G | A2 A A2 B A3 G2 A | %7
[M:9/8] [DFB]2 [DFB] [DFB]2 [DFB] [Fd]3 |[M:3/8] [Ff][Fe][Fd] |[M:6/4] [Fc]6 [FA]3 [Ec][EB][EG] | %10
 [A,F]12 |[M:6/8] .[Ac]6 | [Ac]3 z3 | .[Be]6 | [Bd]3 z3 | [Ff]3 [Ff][Fe][Fd] | c3 .A3 | %17
 [Ec]3- [Ec][EB][EG][Q:1/4=102][Q:1/4=100][Q:1/4=99][Q:1/4=97][Q:1/4=96][Q:1/4=94][Q:1/4=93][Q:1/4=91][Q:1/4=90][Q:1/4=88][Q:1/4=87][Q:1/4=85][Q:1/4=84][Q:1/4=82][Q:1/4=81][Q:1/4=79] | %18
[M:9/16] [A,F]4- [A,F]/ |] %19
V:2
 z6 z3 [F,A,C]2 [F,B,C] | [F,CF]2 [F,CF] [F,CF]2 [F,DF] [F,CF]3 [E,C]2 [F,CF] | %2
[M:9/8] B,,2 B,, B,,2 [B,,B,] [F,A,]3 |[M:3/8] F,F,F, | %4
[M:6/4] z2 z[K:treble] c3[K:bass] [C,C]3 [C,C][C,C][C,C] | [F,CF]6- [F,CF]3 [F,A,C]2 [F,B,C] | %6
 [F,CF]2 [F,CF] [F,CF]2 [F,DF] [F,CF]3 [E,C]2 [F,CF] |[M:9/8] B,,2 B,, B,,2 B,, [B,,B,]3 | %8
[M:3/8] [B,,D][B,,C][B,,B,] |[M:6/4] [F,A,]6 [F,C]3 [C,C][C,C][C,B,] | [F,,F,]12 | %11
[M:6/8] [F,C]F,F, F,[K:treble]BF | C,C,C, .[C,C]3 | [C,C]C,C, C,[K:treble]BB | [F,C]F,F, .[F,C]3 | %15
 [B,,D]3 [B,,D][C,C][D,B,] | [F,A,F]3 .[F,C]3 | [C,G,]3- [C,G,][C,C][C,B,] | %18
[M:9/16] [F,,F,]4- [F,,F,]/ |] %19
V:3
 x12 | x12 |[M:9/8] x9 |[M:3/8] x3 |[M:6/4] C,6[K:treble][K:bass] z6 | x12 | x12 |[M:9/8] x9 | %8
[M:3/8] x3 |[M:6/4] x12 | x12 |[M:6/8] x4[K:treble] x2 | x6 | x4[K:treble] x2 | x6 | x6 | x6 | x6 | %18
[M:9/16] x9/2 |] %19
V:4
 x12 | x12 |[M:9/8] x9 |[M:3/8] x3 |[M:6/4] x12 | x12 | x12 |[M:9/8] x9 |[M:3/8] x3 |[M:6/4] x12 | %10
 x12 |[M:6/8] z CC CdA | FFF .[GB]3 | z CC Cdc | z CC .[Ac]3 | x6 | x6 | x6 |[M:9/16] x9/2 |] %19

